docs/src/images/icons/organism.svg

<svg fill="none" height="128" viewBox="0 0 128 128" width="128" xmlns="http://www.w3.org/2000/svg"><path d="m34.4574 43.4159c6.1628-1.0867 10.2779-6.9636 9.1912-13.1264-1.0867-6.1629-6.9636-10.2779-13.1264-9.1912-6.1629 1.0866-10.2779 6.9635-9.1912 13.1264 1.0866 6.1628 6.9635 10.2779 13.1264 9.1912z" fill="#333"/><path d="m22.2474 44.4635c6.7414 5.6566 16.7921 4.7773 22.4487-1.9641 5.6567-6.7413 4.7774-16.792-1.964-22.4486-6.7413-5.6567-16.792-4.7774-22.4487 1.964-5.6566 6.7413-4.7773 16.792 1.964 22.4487z" stroke="#4976ba" stroke-width="1.64169"/><path d="m22.2474 44.4635c6.7414 5.6566 16.7921 4.7773 22.4487-1.9641 5.6567-6.7413 4.7774-16.792-1.964-22.4486-6.7413-5.6567-16.792-4.7774-22.4487 1.964-5.6566 6.7413-4.7773 16.792 1.964 22.4487z" stroke="#333" stroke-width="1.64169"/><path d="m34.458 75.6045c6.1628-1.0867 10.2779-6.9636 9.1912-13.1264-1.0867-6.1629-6.9636-10.2779-13.1264-9.1912-6.1629 1.0866-10.2779 6.9635-9.1912 13.1264 1.0866 6.1628 6.9635 10.2779 13.1264 9.1912z" fill="#333"/><path d="m22.248 76.6521c6.7414 5.6566 16.792 4.7773 22.4487-1.9641 5.6567-6.7413 4.7774-16.792-1.964-22.4486-6.7414-5.6567-16.792-4.7774-22.4487 1.964-5.6567 6.7413-4.7774 16.792 1.964 22.4487z" stroke="#4976ba" stroke-width="1.64169"/><path d="m22.248 76.6521c6.7414 5.6566 16.792 4.7773 22.4487-1.9641 5.6567-6.7413 4.7774-16.792-1.964-22.4486-6.7414-5.6567-16.792-4.7774-22.4487 1.964-5.6567 6.7413-4.7774 16.792 1.964 22.4487z" stroke="#333" stroke-width="1.64169"/><path d="m34.4577 107.542c6.1628-1.087 10.2779-6.964 9.1912-13.1266-1.0867-6.1629-6.9636-10.2779-13.1264-9.1912-6.1629 1.0866-10.2779 6.9635-9.1913 13.1264 1.0867 6.1624 6.9636 10.2774 13.1265 9.1914z" fill="#333"/><path d="m22.2477 108.589c6.7414 5.657 16.792 4.778 22.4487-1.964 5.6567-6.741 4.7774-16.7916-1.964-22.4483s-16.792-4.7774-22.4487 1.964-4.7774 16.7923 1.964 22.4483z" stroke="#4976ba" stroke-width="1.64169"/><path d="m22.2477 108.589c6.7414 5.657 16.792 4.778 22.4487-1.964 5.6567-6.741 4.7774-16.7916-1.964-22.4483s-16.792-4.7774-22.4487 1.964-4.7774 16.7923 1.964 22.4483z" stroke="#333" stroke-width="1.64169"/><path d="m64.3577 43.5876c-6.2579 0-11.3309-5.073-11.3309-11.3309s5.073-11.331 11.3309-11.331 11.331 5.0731 11.331 11.331-5.0731 11.3309-11.331 11.3309z" fill="#333"/><path d="m95.9715 43.5868c-6.2579 0-11.331-5.073-11.331-11.3309s5.0731-11.331 11.331-11.331c6.2575 0 11.3305 5.0731 11.3305 11.331s-5.073 11.3309-11.3305 11.3309z" fill="#333"/><path d="m58.9079 47.23c-8.2695-3.0099-12.5333-12.1536-9.5235-20.4232 3.0099-8.2695 12.1536-12.5333 20.4232-9.5234 8.2695 3.0098 12.5333 12.1536 9.5234 20.4231-3.0098 8.2695-12.1536 12.5333-20.4231 9.5235z" stroke="#4976ba" stroke-width="1.64169"/><path d="m58.9079 47.23c-8.2695-3.0099-12.5333-12.1536-9.5235-20.4232 3.0099-8.2695 12.1536-12.5333 20.4232-9.5234 8.2695 3.0098 12.5333 12.1536 9.5234 20.4231-3.0098 8.2695-12.1536 12.5333-20.4231 9.5235z" stroke="#333" stroke-width="1.64169"/><path d="m90.5217 47.2292c-8.2696-3.0099-12.5334-12.1536-9.5235-20.4231 3.0099-8.2696 12.1536-12.5334 20.4228-9.5235 8.27 3.0098 12.534 12.1536 9.524 20.4231-3.01 8.2696-12.1538 12.5334-20.4233 9.5235z" stroke="#333" stroke-width="1.64169"/><path d="m47.4783 34.5781c-1.4699-.535-2.2279-2.1604-1.6928-3.6304.535-1.47 2.1604-2.2279 3.6304-1.6929s2.2279 2.1604 1.6929 3.6304c-.5351 1.47-2.1605 2.2279-3.6305 1.6929z" fill="#333"/><path d="m79.0921 34.5774c-1.47-.5351-2.2279-2.1604-1.6929-3.6304.5351-1.47 2.1605-2.228 3.6304-1.6929 1.47.535 2.228 2.1604 1.6929 3.6304-.535 1.47-2.1604 2.2279-3.6304 1.6929z" fill="#333"/><path d="m64.3578 75.7765c-6.2579 0-11.3309-5.0731-11.3309-11.331s5.073-11.3309 11.3309-11.3309 11.331 5.073 11.331 11.3309-5.0731 11.331-11.331 11.331z" fill="#333"/><path d="m95.9712 75.7768c-6.2579 0-11.331-5.0731-11.331-11.331s5.0731-11.3309 11.331-11.3309c6.2578 0 11.3308 5.073 11.3308 11.3309s-5.073 11.331-11.3308 11.331z" fill="#333"/><path d="m58.908 79.4188c-8.2695-3.0098-12.5333-12.1536-9.5235-20.4231 3.0099-8.2695 12.1536-12.5333 20.4232-9.5235 8.2695 3.0099 12.5333 12.1536 9.5234 20.4232-3.0098 8.2695-12.1536 12.5333-20.4231 9.5234z" stroke="#4976ba" stroke-width="1.64169"/><path d="m58.908 79.4188c-8.2695-3.0098-12.5333-12.1536-9.5235-20.4231 3.0099-8.2695 12.1536-12.5333 20.4232-9.5235 8.2695 3.0099 12.5333 12.1536 9.5234 20.4232-3.0098 8.2695-12.1536 12.5333-20.4231 9.5234z" stroke="#333" stroke-width="1.64169"/><path d="m90.5214 79.4191c-8.2696-3.0098-12.5334-12.1536-9.5235-20.4231s12.1536-12.5333 20.4231-9.5235c8.27 3.0099 12.533 12.1536 9.524 20.4232-3.01 8.2695-12.1541 12.5333-20.4236 9.5234z" stroke="#333" stroke-width="1.64169"/><g fill="#333"><path d="m47.4784 66.767c-1.4699-.535-2.2279-2.1604-1.6929-3.6304.5351-1.47 2.1605-2.2279 3.6305-1.6929 1.4699.535 2.2279 2.1604 1.6928 3.6304-.535 1.47-2.1604 2.2279-3.6304 1.6929z"/><path d="m79.0918 66.7673c-1.47-.5351-2.2279-2.1605-1.6929-3.6305.5351-1.4699 2.1604-2.2279 3.6304-1.6928 1.47.535 2.228 2.1604 1.6929 3.6304-.535 1.47-2.1604 2.2279-3.6304 1.6929z"/><path d="m94.7622 51.1661c-1.47-.5351-2.228-2.1605-1.6929-3.6305.535-1.4699 2.1604-2.2279 3.6304-1.6928 1.47.535 2.2279 2.1604 1.6929 3.6304-.5351 1.47-2.1605 2.2279-3.6304 1.6929z"/><path d="m63.9568 51.1664c-1.47-.535-2.2279-2.1604-1.6929-3.6304.5351-1.47 2.1605-2.2279 3.6305-1.6929 1.4699.5351 2.2279 2.1604 1.6928 3.6304-.535 1.47-2.1604 2.228-3.6304 1.6929z"/><path d="m31.7344 51.1658c-1.47-.535-2.2279-2.1604-1.6929-3.6304.5351-1.47 2.1605-2.2279 3.6304-1.6929 1.47.5351 2.228 2.1604 1.6929 3.6304-.535 1.47-2.1604 2.2279-3.6304 1.6929z"/><path d="m64.2981 107.819c-6.2579 0-11.3309-5.073-11.3309-11.3307 0-6.2579 5.073-11.331 11.3309-11.331s11.331 5.0731 11.331 11.331c0 6.2577-5.0731 11.3307-11.331 11.3307z"/><path d="m95.9115 107.82c-6.2579 0-11.331-5.073-11.331-11.3314 0-6.2579 5.0731-11.3309 11.331-11.3309 6.2575 0 11.3305 5.073 11.3305 11.3309 0 6.2584-5.073 11.3314-11.3305 11.3314z"/></g><path d="m58.8483 111.462c-8.2695-3.01-12.5333-12.154-9.5235-20.4235 3.0099-8.2696 12.1536-12.5334 20.4232-9.5235 8.2695 3.0099 12.5333 12.1536 9.5234 20.423-3.0098 8.27-12.1536 12.533-20.4231 9.524z" stroke="#4976ba" stroke-width="1.64169"/><path d="m58.8483 111.462c-8.2695-3.01-12.5333-12.154-9.5235-20.4235 3.0099-8.2696 12.1536-12.5334 20.4232-9.5235 8.2695 3.0099 12.5333 12.1536 9.5234 20.423-3.0098 8.27-12.1536 12.533-20.4231 9.524z" stroke="#333" stroke-width="1.64169"/><path d="m90.4617 111.462c-8.2696-3.01-12.5334-12.1537-9.5235-20.4232s12.1536-12.5334 20.4228-9.5235c8.27 3.0099 12.534 12.1536 9.524 20.4227-3.01 8.27-12.1538 12.534-20.4233 9.524z" stroke="#333" stroke-width="1.64169"/><path d="m47.4187 98.8098c-1.4699-.535-2.2279-2.1604-1.6928-3.6304.535-1.47 2.1604-2.2279 3.6304-1.6929s2.2279 2.1604 1.6929 3.6304c-.5351 1.47-2.1605 2.2279-3.6305 1.6929z" fill="#333"/><path d="m79.0321 98.81c-1.47-.535-2.2279-2.1604-1.6929-3.6304.5351-1.47 2.1605-2.2279 3.6304-1.6929 1.47.5351 2.228 2.1605 1.6929 3.6305-.535 1.4699-2.1604 2.2279-3.6304 1.6928z" fill="#333"/><path d="m94.7025 83.2088c-1.47-.535-2.2279-2.1604-1.6929-3.6304s2.1604-2.2279 3.6304-1.6929c1.47.5351 2.2279 2.1605 1.6929 3.6305-.5351 1.4699-2.1604 2.2279-3.6304 1.6928z" fill="#333"/><path d="m63.8971 83.2092c-1.4699-.535-2.2279-2.1604-1.6928-3.6304.535-1.47 2.1604-2.2279 3.6304-1.6929 1.4699.535 2.2279 2.1604 1.6928 3.6304-.535 1.47-2.1604 2.2279-3.6304 1.6929z" fill="#333"/><path d="m31.6747 83.2086c-1.47-.535-2.2279-2.1604-1.6929-3.6304.5351-1.47 2.1605-2.2279 3.6305-1.6929 1.4699.535 2.2279 2.1604 1.6928 3.6304-.535 1.47-2.1604 2.2279-3.6304 1.6929z" fill="#333"/></svg>

<svg width="128" height="128" viewBox="0 0 128 128" fill="none" xmlns="http://www.w3.org/2000/svg">
<path d="M34.4574 43.4159C40.6202 42.3292 44.7353 36.4523 43.6486 30.2895C42.5619 24.1266 36.685 20.0116 30.5222 21.0983C24.3593 22.1849 20.2443 28.0618 21.331 34.2247C22.4176 40.3875 28.2945 44.5026 34.4574 43.4159Z" fill="#333333"/>
<path d="M22.2474 44.4635C28.9888 50.1201 39.0395 49.2408 44.6961 42.4994C50.3528 35.7581 49.4735 25.7074 42.7321 20.0508C35.9908 14.3941 25.9401 15.2734 20.2834 22.0148C14.6268 28.7561 15.5061 38.8068 22.2474 44.4635Z" stroke="#4976BA" stroke-width="1.64169"/>
<path d="M22.2474 44.4635C28.9888 50.1201 39.0395 49.2408 44.6961 42.4994C50.3528 35.7581 49.4735 25.7074 42.7321 20.0508C35.9908 14.3941 25.9401 15.2734 20.2834 22.0148C14.6268 28.7561 15.5061 38.8068 22.2474 44.4635Z" stroke="#333333" stroke-width="1.64169"/>
<path d="M34.458 75.6045C40.6208 74.5178 44.7359 68.6409 43.6492 62.4781C42.5625 56.3152 36.6856 52.2002 30.5228 53.2869C24.3599 54.3735 20.2449 60.2504 21.3316 66.4133C22.4182 72.5761 28.2951 76.6912 34.458 75.6045Z" fill="#333333"/>
<path d="M22.248 76.6521C28.9894 82.3087 39.04 81.4294 44.6967 74.688C50.3534 67.9467 49.4741 57.896 42.7327 52.2394C35.9913 46.5827 25.9407 47.462 20.284 54.2034C14.6273 60.9447 15.5066 70.9954 22.248 76.6521Z" stroke="#4976BA" stroke-width="1.64169"/>
<path d="M22.248 76.6521C28.9894 82.3087 39.04 81.4294 44.6967 74.688C50.3534 67.9467 49.4741 57.896 42.7327 52.2394C35.9913 46.5827 25.9407 47.462 20.284 54.2034C14.6273 60.9447 15.5066 70.9954 22.248 76.6521Z" stroke="#333333" stroke-width="1.64169"/>
<path d="M34.4577 107.542C40.6205 106.455 44.7356 100.578 43.6489 94.4154C42.5622 88.2525 36.6853 84.1375 30.5225 85.2242C24.3596 86.3108 20.2446 92.1877 21.3312 98.3506C22.4179 104.513 28.2948 108.628 34.4577 107.542Z" fill="#333333"/>
<path d="M22.2477 108.589C28.9891 114.246 39.0397 113.367 44.6964 106.625C50.3531 99.884 49.4738 89.8334 42.7324 84.1767C35.991 78.52 25.9404 79.3993 20.2837 86.1407C14.627 92.8821 15.5063 102.933 22.2477 108.589Z" stroke="#4976BA" stroke-width="1.64169"/>
<path d="M22.2477 108.589C28.9891 114.246 39.0397 113.367 44.6964 106.625C50.3531 99.884 49.4738 89.8334 42.7324 84.1767C35.991 78.52 25.9404 79.3993 20.2837 86.1407C14.627 92.8821 15.5063 102.933 22.2477 108.589Z" stroke="#333333" stroke-width="1.64169"/>
<path d="M64.3577 43.5876C58.0998 43.5876 53.0268 38.5146 53.0268 32.2567C53.0268 25.9988 58.0998 20.9257 64.3577 20.9257C70.6156 20.9257 75.6887 25.9988 75.6887 32.2567C75.6887 38.5146 70.6156 43.5876 64.3577 43.5876Z" fill="#333333"/>
<path d="M95.9715 43.5868C89.7136 43.5868 84.6405 38.5138 84.6405 32.2559C84.6405 25.998 89.7136 20.9249 95.9715 20.9249C102.229 20.9249 107.302 25.998 107.302 32.2559C107.302 38.5138 102.229 43.5868 95.9715 43.5868Z" fill="#333333"/>
<path d="M58.9079 47.23C50.6384 44.2201 46.3746 35.0764 49.3844 26.8068C52.3943 18.5373 61.538 14.2735 69.8076 17.2834C78.0771 20.2932 82.3409 29.437 79.331 37.7065C76.3212 45.976 67.1774 50.2398 58.9079 47.23Z" stroke="#4976BA" stroke-width="1.64169"/>
<path d="M58.9079 47.23C50.6384 44.2201 46.3746 35.0764 49.3844 26.8068C52.3943 18.5373 61.538 14.2735 69.8076 17.2834C78.0771 20.2932 82.3409 29.437 79.331 37.7065C76.3212 45.976 67.1774 50.2398 58.9079 47.23Z" stroke="#333333" stroke-width="1.64169"/>
<path d="M90.5217 47.2292C82.2521 44.2193 77.9883 35.0756 80.9982 26.8061C84.0081 18.5365 93.1518 14.2727 101.421 17.2826C109.691 20.2924 113.955 29.4362 110.945 37.7057C107.935 45.9753 98.7912 50.2391 90.5217 47.2292Z" stroke="#333333" stroke-width="1.64169"/>
<path d="M47.4783 34.5781C46.0084 34.0431 45.2504 32.4177 45.7855 30.9477C46.3205 29.4777 47.9459 28.7198 49.4159 29.2548C50.8859 29.7898 51.6438 31.4152 51.1088 32.8852C50.5737 34.3552 48.9483 35.1131 47.4783 34.5781Z" fill="#333333"/>
<path d="M79.0921 34.5774C77.6221 34.0423 76.8642 32.417 77.3992 30.947C77.9343 29.477 79.5597 28.719 81.0296 29.2541C82.4996 29.7891 83.2576 31.4145 82.7225 32.8845C82.1875 34.3545 80.5621 35.1124 79.0921 34.5774Z" fill="#333333"/>
<path d="M64.3578 75.7765C58.0999 75.7765 53.0269 70.7034 53.0269 64.4455C53.0269 58.1876 58.0999 53.1146 64.3578 53.1146C70.6157 53.1146 75.6888 58.1876 75.6888 64.4455C75.6888 70.7034 70.6157 75.7765 64.3578 75.7765Z" fill="#333333"/>
<path d="M95.9712 75.7768C89.7133 75.7768 84.6402 70.7037 84.6402 64.4458C84.6402 58.1879 89.7133 53.1149 95.9712 53.1149C102.229 53.1149 107.302 58.1879 107.302 64.4458C107.302 70.7037 102.229 75.7768 95.9712 75.7768Z" fill="#333333"/>
<path d="M58.908 79.4188C50.6385 76.409 46.3747 67.2652 49.3845 58.9957C52.3944 50.7262 61.5381 46.4624 69.8077 49.4722C78.0772 52.4821 82.341 61.6258 79.3311 69.8954C76.3213 78.1649 67.1775 82.4287 58.908 79.4188Z" stroke="#4976BA" stroke-width="1.64169"/>
<path d="M58.908 79.4188C50.6385 76.409 46.3747 67.2652 49.3845 58.9957C52.3944 50.7262 61.5381 46.4624 69.8077 49.4722C78.0772 52.4821 82.341 61.6258 79.3311 69.8954C76.3213 78.1649 67.1775 82.4287 58.908 79.4188Z" stroke="#333333" stroke-width="1.64169"/>
<path d="M90.5214 79.4191C82.2518 76.4093 77.988 67.2655 80.9979 58.996C84.0078 50.7265 93.1515 46.4627 101.421 49.4725C109.691 52.4824 113.954 61.6261 110.945 69.8957C107.935 78.1652 98.7909 82.429 90.5214 79.4191Z" stroke="#333333" stroke-width="1.64169"/>
<path d="M47.4784 66.767C46.0085 66.232 45.2505 64.6066 45.7855 63.1366C46.3206 61.6666 47.946 60.9087 49.416 61.4437C50.8859 61.9787 51.6439 63.6041 51.1088 65.0741C50.5738 66.5441 48.9484 67.302 47.4784 66.767Z" fill="#333333"/>
<path d="M79.0918 66.7673C77.6218 66.2322 76.8639 64.6068 77.3989 63.1368C77.934 61.6669 79.5593 60.9089 81.0293 61.444C82.4993 61.979 83.2573 63.6044 82.7222 65.0744C82.1872 66.5444 80.5618 67.3023 79.0918 66.7673Z" fill="#333333"/>
<path d="M94.7622 51.1661C93.2922 50.631 92.5342 49.0056 93.0693 47.5356C93.6043 46.0657 95.2297 45.3077 96.6997 45.8428C98.1697 46.3778 98.9276 48.0032 98.3926 49.4732C97.8575 50.9432 96.2321 51.7011 94.7622 51.1661Z" fill="#333333"/>
<path d="M63.9568 51.1664C62.4868 50.6314 61.7289 49.006 62.2639 47.536C62.799 46.066 64.4244 45.3081 65.8944 45.8431C67.3643 46.3782 68.1223 48.0035 67.5872 49.4735C67.0522 50.9435 65.4268 51.7015 63.9568 51.1664Z" fill="#333333"/>
<path d="M31.7344 51.1658C30.2644 50.6308 29.5065 49.0054 30.0415 47.5354C30.5766 46.0654 32.202 45.3075 33.6719 45.8425C35.1419 46.3776 35.8999 48.0029 35.3648 49.4729C34.8298 50.9429 33.2044 51.7008 31.7344 51.1658Z" fill="#333333"/>
<path d="M64.2981 107.819C58.0402 107.819 52.9672 102.746 52.9672 96.4883C52.9672 90.2304 58.0402 85.1573 64.2981 85.1573C70.556 85.1573 75.6291 90.2304 75.6291 96.4883C75.6291 102.746 70.556 107.819 64.2981 107.819Z" fill="#333333"/>
<path d="M95.9115 107.82C89.6536 107.82 84.5805 102.747 84.5805 96.4886C84.5805 90.2307 89.6536 85.1577 95.9115 85.1577C102.169 85.1577 107.242 90.2307 107.242 96.4886C107.242 102.747 102.169 107.82 95.9115 107.82Z" fill="#333333"/>
<path d="M58.8483 111.462C50.5788 108.452 46.315 99.308 49.3248 91.0385C52.3347 82.7689 61.4784 78.5051 69.748 81.515C78.0175 84.5249 82.2813 93.6686 79.2714 101.938C76.2616 110.208 67.1178 114.471 58.8483 111.462Z" stroke="#4976BA" stroke-width="1.64169"/>
<path d="M58.8483 111.462C50.5788 108.452 46.315 99.308 49.3248 91.0385C52.3347 82.7689 61.4784 78.5051 69.748 81.515C78.0175 84.5249 82.2813 93.6686 79.2714 101.938C76.2616 110.208 67.1178 114.471 58.8483 111.462Z" stroke="#333333" stroke-width="1.64169"/>
<path d="M90.4617 111.462C82.1921 108.452 77.9283 99.3083 80.9382 91.0388C83.9481 82.7693 93.0918 78.5054 101.361 81.5153C109.631 84.5252 113.895 93.6689 110.885 101.938C107.875 110.208 98.7312 114.472 90.4617 111.462Z" stroke="#333333" stroke-width="1.64169"/>
<path d="M47.4187 98.8098C45.9488 98.2748 45.1908 96.6494 45.7259 95.1794C46.2609 93.7094 47.8863 92.9515 49.3563 93.4865C50.8263 94.0215 51.5842 95.6469 51.0492 97.1169C50.5141 98.5869 48.8887 99.3448 47.4187 98.8098Z" fill="#333333"/>
<path d="M79.0321 98.81C77.5621 98.275 76.8042 96.6496 77.3392 95.1796C77.8743 93.7096 79.4997 92.9517 80.9696 93.4867C82.4396 94.0218 83.1976 95.6472 82.6625 97.1172C82.1275 98.5871 80.5021 99.3451 79.0321 98.81Z" fill="#333333"/>
<path d="M94.7025 83.2088C93.2325 82.6738 92.4746 81.0484 93.0096 79.5784C93.5446 78.1084 95.17 77.3505 96.64 77.8855C98.11 78.4206 98.8679 80.046 98.3329 81.516C97.7978 82.9859 96.1725 83.7439 94.7025 83.2088Z" fill="#333333"/>
<path d="M63.8971 83.2092C62.4272 82.6742 61.6692 81.0488 62.2043 79.5788C62.7393 78.1088 64.3647 77.3509 65.8347 77.8859C67.3046 78.4209 68.0626 80.0463 67.5275 81.5163C66.9925 82.9863 65.3671 83.7442 63.8971 83.2092Z" fill="#333333"/>
<path d="M31.6747 83.2086C30.2047 82.6736 29.4468 81.0482 29.9818 79.5782C30.5169 78.1082 32.1423 77.3503 33.6123 77.8853C35.0822 78.4203 35.8402 80.0457 35.3051 81.5157C34.7701 82.9857 33.1447 83.7436 31.6747 83.2086Z" fill="#333333"/>
</svg>
